public/images/logo-LREM.svg

<svg viewBox="0 0 392 94"><path fill="#1D1D1B" d="M63.7 6.5h3.2v19.4H77v2.9H63.7zm25.8-.1h2.2l10 22.5h-3.3l-3-6.6H86l-2.8 6.6h-3.3l9.6-22.5zm4.7 13l-3.6-8.1-3.3 8.1h6.9zm24.5 9.4V6.5h5.6c2.3 0 4.1.6 5.4 1.7 1.3 1.1 2 2.6 2 4.5 0 1.3-.3 2.4-1 3.4-.7.9-1.6 1.7-2.8 2.1.7.5 1.4 1.1 2.1 1.9.7.8 1.6 2.2 2.9 4.2.8 1.3 1.4 2.2 1.9 2.9l1.2 1.6h-3.8l-1-1.5c0-.1-.1-.1-.2-.3l-.6-.9-1-1.6-1.1-1.7c-.7-.9-1.3-1.6-1.8-2.2-.6-.5-1-.9-1.5-1.2-.4-.2-1.2-.4-2.2-.4h-.8v9.7h-3.3v.1zm4.1-19.6h-1v7.1h1.2c1.6 0 2.7-.1 3.3-.4.6-.3 1.1-.7 1.4-1.3.3-.6.5-1.2.5-1.9s-.2-1.3-.6-1.9c-.4-.6-.9-1-1.6-1.2-.5-.3-1.6-.4-3.2-.4zM141 6.5h12.7v2.8h-9.5v6.8h9.2V19h-9.2v6.9h9.8v2.8h-13V6.5zm9.3-6.5l-3.6 4.8h-1.8l2.2-4.8h3.2zm9.5 28.8V6.4h7.1c2.1 0 3.8.6 5.1 1.7 1.3 1.2 1.9 2.7 1.9 4.6 0 1.3-.3 2.5-1 3.5s-1.5 1.7-2.7 2.2c-1.1.5-2.8.7-4.9.7H163v9.7h-3.2zm6.5-19.5H163v7h3.5c1.3 0 2.3-.3 3-.9.7-.6 1.1-1.5 1.1-2.6 0-2.3-1.4-3.5-4.3-3.5zm28.5-2.8h3.2v12.7c0 1.7-.1 3-.4 3.9-.3.9-.6 1.6-.9 2.2-.4.6-.8 1.1-1.4 1.6-1.8 1.5-4.1 2.3-6.9 2.3-2.9 0-5.2-.8-7-2.3-.5-.5-1-1-1.4-1.6-.4-.6-.7-1.3-.9-2.1-.2-.8-.4-2.2-.4-4V6.5h3.2v12.7c0 2.1.2 3.6.7 4.4.5.8 1.2 1.5 2.2 2 1 .5 2.1.7 3.5.7 1.9 0 3.4-.5 4.6-1.5.6-.5 1.1-1.2 1.4-1.9.3-.7.4-2 .4-3.7V6.5h.1zm17.9 22.3h-7.6V6.5h5.9c1.8 0 3.3.2 4.3.7 1 .5 1.8 1.2 2.4 2 .5.9.8 1.9.8 3 0 2.2-1.1 3.8-3.4 4.7 1.6.3 2.9 1 3.9 2s1.4 2.3 1.4 3.7c0 1.1-.3 2.2-.9 3.1-.6.9-1.4 1.6-2.6 2.2-1.1.7-2.5.9-4.2.9zm-1.6-19.5h-2.8V16h2.1c1.7 0 2.9-.3 3.6-1 .7-.7 1.1-1.5 1.1-2.5.1-2.1-1.3-3.2-4-3.2zm.2 9.6h-3V26h3.2c1.7 0 2.9-.1 3.6-.4.6-.3 1.1-.7 1.5-1.3.4-.6.6-1.2.6-1.9s-.2-1.3-.6-1.9c-.4-.6-1-1-1.7-1.3-.8-.2-2-.3-3.6-.3zm14.9-12.4h3.2v19.4h10.1v2.9h-13.3V6.5zm18.7 0h3.2v22.3h-3.2zm33.3 23.8l-3.2 3.1c-1-.1-2-.2-3.1-.5s-2.2-.7-3.3-1.3c-1.1-.5-2.6-1.4-4.5-2.7-2.7-.5-5-1.8-6.7-3.9-1.8-2.1-2.6-4.5-2.6-7.2 0-3.3 1.1-6.1 3.4-8.3 2.3-2.2 5.1-3.3 8.6-3.3s6.3 1.1 8.6 3.3c2.3 2.2 3.4 4.9 3.4 8.2 0 2.8-.9 5.2-2.6 7.3-1.7 2.1-4 3.4-6.7 4l.8.3c2.6 1 4.5 1.5 5.7 1.5.6-.1 1.3-.3 2.2-.5zM266.7 9.2c-2.5 0-4.6.8-6.2 2.4-1.6 1.6-2.5 3.7-2.5 6.1 0 2.4.8 4.4 2.5 6 1.7 1.6 3.7 2.4 6.2 2.4s4.5-.8 6.2-2.4c1.7-1.6 2.5-3.6 2.5-6s-.8-4.5-2.5-6.1c-1.6-1.6-3.7-2.4-6.2-2.4zm34.1-2.7h3.2v12.7c0 1.7-.1 3-.4 3.9-.3.9-.6 1.6-.9 2.2-.4.6-.8 1.1-1.4 1.6-1.8 1.5-4.1 2.3-6.9 2.3-2.9 0-5.2-.8-7-2.3-.5-.5-1-1-1.4-1.6-.4-.6-.7-1.3-.9-2.1-.2-.8-.4-2.2-.4-4V6.5h3.2v12.7c0 2.1.2 3.6.7 4.4.5.8 1.2 1.5 2.2 2 1 .5 2.1.7 3.5.7 1.9 0 3.4-.5 4.6-1.5.6-.5 1.1-1.2 1.4-1.9.3-.7.4-2 .4-3.7V6.5h.1zm10.3 0h12.7v2.8h-9.5v6.8h9.2V19h-9.2v6.9h9.8v2.8h-13zM7.2 43.8L.1 92.9h36.8l1.2-8.8H14L15.6 72H33l1.3-8.8H17l1.5-10.6h19.9l1.3-8.8zm72.7 23.4c0 .7-.1 2-.4 4l-3.2 21.7H64.6l3.3-22.5c0-.3.1-.7.1-1.2 0-2.3-1-3.4-3-3.4-1.2 0-2.4.4-3.6 1.2-1.2.8-2.8 2.2-4.8 4.1l-3.2 21.8H41.5l5.4-36.1h11.8l-.6 4.2c2.2-1.6 4.1-2.8 5.7-3.6 1.6-.8 3.7-1.3 6.1-1.3 3.7 0 6.3 1.1 7.8 3.4 1.4 2.4 2.2 4.9 2.2 7.7m72.9-23.4L135.9 75l-7.7-31.2H115L98.8 92.9h12.4l10.6-32.4 8.1 32.4h7.6l17-31.4 1.4 31.4h12l-2.3-49.1zm59.4 13.5l-5.5 35.6H195l.6-3.3c-1.4 1.2-2.7 2.2-4 2.9-1.3.7-2.9 1-4.9 1-2.6 0-4.8-.7-6.8-2.1-2-1.4-3.5-3.3-4.5-5.7-1.1-2.4-1.6-5-1.6-7.8 0-2.3.4-4.7 1.2-7.2.8-2.4 2.1-4.8 4.1-7 2-2.2 4.8-4 8.3-5.4 3.6-1.4 8-2.1 13.3-2.1 2.2 0 4 .1 5.5.2 1.4.2 3.4.5 6 .9zm-12.7 7.6h-2.2c-2.1 0-4.1.6-5.8 1.8-1.8 1.2-3.1 2.8-4.1 4.9-1 2.1-1.5 4.3-1.5 6.7 0 1.6.4 3 1.2 4.2.8 1.1 2 1.7 3.5 1.7.8 0 1.6-.2 2.6-.6 1-.4 2.2-1.1 3.7-2l2.6-16.7zm44.5-5l-5.6 11.4c-.6-1.1-1.3-2.1-2.1-2.8-.8-.8-1.8-1.2-3-1.2-2.3 0-4.4 1.7-6.4 5l-3 20.6h-11.7l5.4-36.1h11.7l-.7 5.2c3.2-3.9 6.1-5.8 8.6-5.8 1.3 0 2.5.3 3.5 1 1.1.6 2.1 1.5 3.3 2.7m31.6-2.4L274 68.7c-2.3-.8-3.8-1.2-4.4-1.3-1.3-.3-2.8-.5-4.2-.5-2.7 0-4.9.5-6.7 1.6-1.7 1-3 2.3-3.8 3.8-.8 1.5-1.2 2.9-1.2 4.1 0 1.6.5 3.1 1.6 4.6 1.1 1.5 3.3 2.2 6.6 2.2 1.7 0 3.3-.2 5-.7 1.7-.5 3.9-1.4 6.6-2.7l-1.9 12.1c-1.5.5-2.7.8-3.6 1-.9.2-1.9.4-3 .5-1.1.1-2.2.2-3.3.2-7.7 0-13-1.9-15.8-5.6-2.8-3.7-4.2-7.7-4.2-11.8 0-2.6.7-5.5 2.1-8.6 1.4-3.1 3.8-5.7 7.2-8 3.4-2.3 8.1-3.4 13.9-3.4 3.3 0 6.9.4 10.7 1.3m40.3 9.4c0 1.3-.2 3.1-.5 5.3l-3 20.7h-11.8l3.3-22.2c0-.4.1-.7.1-.9 0-1-.3-2-.8-2.8-.5-.8-1.3-1.2-2.3-1.2-1.2 0-2.4.4-3.6 1.3-1.3.9-2.8 2.2-4.7 4l-3.2 21.7h-11.8l7.3-49.1h11.7L294 60.9c2.2-1.6 4.1-2.8 5.8-3.6 1.7-.8 3.7-1.2 5.9-1.2 2.7 0 4.8.6 6.3 1.8 1.5 1.2 2.5 2.6 3.1 4.2.5 1.8.8 3.4.8 4.8m39.4 5.8c0 1.7-.2 3.5-.5 5.3H332c0 5 2.4 7.5 7.3 7.5 2.4 0 4.6-.3 6.5-.9 1.9-.6 4.2-1.4 6.9-2.5l-1.8 8.9c-2.5 1-4.6 1.7-6.1 2.1-1.5.4-3.4.5-5.8.5-4.9 0-8.8-.9-11.6-2.7-2.8-1.8-4.7-4-5.7-6.5s-1.5-5-1.5-7.5c0-3.7.8-7.1 2.5-10.3 1.7-3.2 4-5.7 7-7.5 3-1.9 6.4-2.8 10.1-2.8 2.8 0 5.4.6 7.7 1.8 2.3 1.2 4.2 3 5.6 5.5 1.5 2.4 2.2 5.5 2.2 9.1zm-11.4-1.1v-1.2c0-4.1-1.4-6.1-4.2-6.1-1.7 0-3 .7-4 2s-1.9 3.1-2.7 5.3h10.9zm43 14.6c0 1.3-.3 2.5-1 3.7-.7 1.1-1.6 2-2.7 2.7-1.1.7-2.4 1-3.7 1-1.3 0-2.6-.3-3.7-1s-2-1.6-2.7-2.7c-.7-1.1-1-2.4-1-3.7 0-1.3.3-2.6 1-3.7s1.6-2 2.7-2.7c1.1-.7 2.4-1 3.7-1 1.3 0 2.5.3 3.7 1 1.1.7 2 1.6 2.7 2.7.7 1.1 1 2.3 1 3.7m5-37.7c0 1.2-.1 2.4-.4 3.7-.3 1.3-.7 2.8-1.2 4.7l-5.6 19.6h-7.5l.6-22.8c.2-3.1.6-5.2 1-6.4.4-1 1.1-2 2.2-2.9 1.1-.9 2.6-1.3 4.6-1.3 2.2 0 3.8.5 4.8 1.6 1 1.2 1.5 2.4 1.5 3.8"/></svg>

<svg xmlns="http://www.w3.org/2000/svg" width="392" height="94" version="1.1" viewBox="0 0 392 94"><g fill="none" fill-rule="evenodd" stroke="none" stroke-width="1"><g fill="#1D1D1B" fill-rule="nonzero"><polygon points="63.7 6.5 66.9 6.5 66.9 25.9 77 25.9 77 28.8 63.7 28.8"/><path d="M89.5,6.4 L91.7,6.4 L101.7,28.9 L98.4,28.9 L95.4,22.3 L86,22.3 L83.2,28.9 L79.9,28.9 L89.5,6.4 Z M94.2,19.4 L90.6,11.3 L87.3,19.4 L94.2,19.4 Z"/><path d="M118.7,28.8 L118.7,6.5 L124.3,6.5 C126.6,6.5 128.4,7.1 129.7,8.2 C131,9.3 131.7,10.8 131.7,12.7 C131.7,14 131.4,15.1 130.7,16.1 C130,17 129.1,17.8 127.9,18.2 C128.6,18.7 129.3,19.3 130,20.1 C130.7,20.9 131.6,22.3 132.9,24.3 C133.7,25.6 134.3,26.5 134.8,27.2 L136,28.8 L132.2,28.8 L131.2,27.3 C131.2,27.2 131.1,27.2 131,27 L130.4,26.1 L129.4,24.5 L128.3,22.8 C127.6,21.9 127,21.2 126.5,20.6 C125.9,20.1 125.5,19.7 125,19.4 C124.6,19.2 123.8,19 122.8,19 L122,19 L122,28.7 L118.7,28.7 L118.7,28.8 Z M122.8,9.2 L121.8,9.2 L121.8,16.3 L123,16.3 C124.6,16.3 125.7,16.2 126.3,15.9 C126.9,15.6 127.4,15.2 127.7,14.6 C128,14 128.2,13.4 128.2,12.7 C128.2,12 128,11.4 127.6,10.8 C127.2,10.2 126.7,9.8 126,9.6 C125.5,9.3 124.4,9.2 122.8,9.2 Z"/><path d="M141,6.5 L153.7,6.5 L153.7,9.3 L144.2,9.3 L144.2,16.1 L153.4,16.1 L153.4,19 L144.2,19 L144.2,25.9 L154,25.9 L154,28.7 L141,28.7 L141,6.5 Z M150.3,0 L146.7,4.8 L144.9,4.8 L147.1,0 L150.3,0 Z"/><path d="M159.8,28.8 L159.8,6.4 L166.9,6.4 C169,6.4 170.7,7 172,8.1 C173.3,9.3 173.9,10.8 173.9,12.7 C173.9,14 173.6,15.2 172.9,16.2 C172.2,17.2 171.4,17.9 170.2,18.4 C169.1,18.9 167.4,19.1 165.3,19.1 L163,19.1 L163,28.8 L159.8,28.8 L159.8,28.8 Z M166.3,9.3 L163,9.3 L163,16.3 L166.5,16.3 C167.8,16.3 168.8,16 169.5,15.4 C170.2,14.8 170.6,13.9 170.6,12.8 C170.6,10.5 169.2,9.3 166.3,9.3 Z"/><path d="M194.8,6.5 L198,6.5 L198,19.2 C198,20.9 197.9,22.2 197.6,23.1 C197.3,24 197,24.7 196.7,25.3 C196.3,25.9 195.9,26.4 195.3,26.9 C193.5,28.4 191.2,29.2 188.4,29.2 C185.5,29.2 183.2,28.4 181.4,26.9 C180.9,26.4 180.4,25.9 180,25.3 C179.6,24.7 179.3,24 179.1,23.2 C178.9,22.4 178.7,21 178.7,19.2 L178.7,6.5 L181.9,6.5 L181.9,19.2 C181.9,21.3 182.1,22.8 182.6,23.6 C183.1,24.4 183.8,25.1 184.8,25.6 C185.8,26.1 186.9,26.3 188.3,26.3 C190.2,26.3 191.7,25.8 192.9,24.8 C193.5,24.3 194,23.6 194.3,22.9 C194.6,22.2 194.7,20.9 194.7,19.2 L194.7,6.5 L194.8,6.5 Z"/><path d="M212.7,28.8 L205.1,28.8 L205.1,6.5 L211,6.5 C212.8,6.5 214.3,6.7 215.3,7.2 C216.3,7.7 217.1,8.4 217.7,9.2 C218.2,10.1 218.5,11.1 218.5,12.2 C218.5,14.4 217.4,16 215.1,16.9 C216.7,17.2 218,17.9 219,18.9 C220,19.9 220.4,21.2 220.4,22.6 C220.4,23.7 220.1,24.8 219.5,25.7 C218.9,26.6 218.1,27.3 216.9,27.9 C215.8,28.6 214.4,28.8 212.7,28.8 Z M211.1,9.3 L208.3,9.3 L208.3,16 L210.4,16 C212.1,16 213.3,15.7 214,15 C214.7,14.3 215.1,13.5 215.1,12.5 C215.2,10.4 213.8,9.3 211.1,9.3 Z M211.3,18.9 L208.3,18.9 L208.3,26 L211.5,26 C213.2,26 214.4,25.9 215.1,25.6 C215.7,25.3 216.2,24.9 216.6,24.3 C217,23.7 217.2,23.1 217.2,22.4 C217.2,21.7 217,21.1 216.6,20.5 C216.2,19.9 215.6,19.5 214.9,19.2 C214.1,19 212.9,18.9 211.3,18.9 Z"/><polygon points="226.2 6.5 229.4 6.5 229.4 25.9 239.5 25.9 239.5 28.8 226.2 28.8 226.2 6.5"/><polygon points="244.9 6.5 248.1 6.5 248.1 28.8 244.9 28.8"/><path d="M278.2,30.3 L275,33.4 C274,33.3 273,33.2 271.9,32.9 C270.8,32.6 269.7,32.2 268.6,31.6 C267.5,31.1 266,30.2 264.1,28.9 C261.4,28.4 259.1,27.1 257.4,25 C255.6,22.9 254.8,20.5 254.8,17.8 C254.8,14.5 255.9,11.7 258.2,9.5 C260.5,7.3 263.3,6.2 266.8,6.2 C270.3,6.2 273.1,7.3 275.4,9.5 C277.7,11.7 278.8,14.4 278.8,17.7 C278.8,20.5 277.9,22.9 276.2,25 C274.5,27.1 272.2,28.4 269.5,29 L270.3,29.3 C272.9,30.3 274.8,30.8 276,30.8 C276.6,30.7 277.3,30.5 278.2,30.3 Z M266.7,9.2 C264.2,9.2 262.1,10 260.5,11.6 C258.9,13.2 258,15.3 258,17.7 C258,20.1 258.8,22.1 260.5,23.7 C262.2,25.3 264.2,26.1 266.7,26.1 C269.2,26.1 271.2,25.3 272.9,23.7 C274.6,22.1 275.4,20.1 275.4,17.7 C275.4,15.3 274.6,13.2 272.9,11.6 C271.3,10 269.2,9.2 266.7,9.2 Z"/><path d="M300.8,6.5 L304,6.5 L304,19.2 C304,20.9 303.9,22.2 303.6,23.1 C303.3,24 303,24.7 302.7,25.3 C302.3,25.9 301.9,26.4 301.3,26.9 C299.5,28.4 297.2,29.2 294.4,29.2 C291.5,29.2 289.2,28.4 287.4,26.9 C286.9,26.4 286.4,25.9 286,25.3 C285.6,24.7 285.3,24 285.1,23.2 C284.9,22.4 284.7,21 284.7,19.2 L284.7,6.5 L287.9,6.5 L287.9,19.2 C287.9,21.3 288.1,22.8 288.6,23.6 C289.1,24.4 289.8,25.1 290.8,25.6 C291.8,26.1 292.9,26.3 294.3,26.3 C296.2,26.3 297.7,25.8 298.9,24.8 C299.5,24.3 300,23.6 300.3,22.9 C300.6,22.2 300.7,20.9 300.7,19.2 L300.7,6.5 L300.8,6.5 Z"/><polygon points="311.1 6.5 323.8 6.5 323.8 9.3 314.3 9.3 314.3 16.1 323.5 16.1 323.5 19 314.3 19 314.3 25.9 324.1 25.9 324.1 28.7 311.1 28.7"/><polygon points="7.2 43.8 .1 92.9 36.9 92.9 38.1 84.1 14 84.1 15.6 72 33 72 34.3 63.2 17 63.2 18.5 52.6 38.4 52.6 39.7 43.8"/><path d="M79.9,67.2 C79.9,67.9 79.8,69.2 79.5,71.2 L76.3,92.9 L64.6,92.9 L67.9,70.4 C67.9,70.1 68,69.7 68,69.2 C68,66.9 67,65.8 65,65.8 C63.8,65.8 62.6,66.2 61.4,67 C60.2,67.8 58.6,69.2 56.6,71.1 L53.4,92.9 L41.5,92.9 L46.9,56.8 L58.7,56.8 L58.1,61 C60.3,59.4 62.2,58.2 63.8,57.4 C65.4,56.6 67.5,56.1 69.9,56.1 C73.6,56.1 76.2,57.2 77.7,59.5 C79.1,61.9 79.9,64.4 79.9,67.2"/><polygon points="152.8 43.8 135.9 75 128.2 43.8 115 43.8 98.8 92.9 111.2 92.9 121.8 60.5 129.9 92.9 137.5 92.9 154.5 61.5 155.9 92.9 167.9 92.9 165.6 43.8"/><path d="M212.2,57.3 L206.7,92.9 L195,92.9 L195.6,89.6 C194.2,90.8 192.9,91.8 191.6,92.5 C190.3,93.2 188.7,93.5 186.7,93.5 C184.1,93.5 181.9,92.8 179.9,91.4 C177.9,90 176.4,88.1 175.4,85.7 C174.3,83.3 173.8,80.7 173.8,77.9 C173.8,75.6 174.2,73.2 175,70.7 C175.8,68.3 177.1,65.9 179.1,63.7 C181.1,61.5 183.9,59.7 187.4,58.3 C191,56.9 195.4,56.2 200.7,56.2 C202.9,56.2 204.7,56.3 206.2,56.4 C207.6,56.6 209.6,56.9 212.2,57.3 L212.2,57.3 Z M199.5,64.9 L197.3,64.9 C195.2,64.9 193.2,65.5 191.5,66.7 C189.7,67.9 188.4,69.5 187.4,71.6 C186.4,73.7 185.9,75.9 185.9,78.3 C185.9,79.9 186.3,81.3 187.1,82.5 C187.9,83.6 189.1,84.2 190.6,84.2 C191.4,84.2 192.2,84 193.2,83.6 C194.2,83.2 195.4,82.5 196.9,81.6 L199.5,64.9 Z"/><path d="M244,59.9 L238.4,71.3 C237.8,70.2 237.1,69.2 236.3,68.5 C235.5,67.7 234.5,67.3 233.3,67.3 C231,67.3 228.9,69 226.9,72.3 L223.9,92.9 L212.2,92.9 L217.6,56.8 L229.3,56.8 L228.6,62 C231.8,58.1 234.7,56.2 237.2,56.2 C238.5,56.2 239.7,56.5 240.7,57.2 C241.8,57.8 242.8,58.7 244,59.9"/><path d="M275.6,57.5 L274,68.7 C271.7,67.9 270.2,67.5 269.6,67.4 C268.3,67.1 266.8,66.9 265.4,66.9 C262.7,66.9 260.5,67.4 258.7,68.5 C257,69.5 255.7,70.8 254.9,72.3 C254.1,73.8 253.7,75.2 253.7,76.4 C253.7,78 254.2,79.5 255.3,81 C256.4,82.5 258.6,83.2 261.9,83.2 C263.6,83.2 265.2,83 266.9,82.5 C268.6,82 270.8,81.1 273.5,79.8 L271.6,91.9 C270.1,92.4 268.9,92.7 268,92.9 C267.1,93.1 266.1,93.3 265,93.4 C263.9,93.5 262.8,93.6 261.7,93.6 C254,93.6 248.7,91.7 245.9,88 C243.1,84.3 241.7,80.3 241.7,76.2 C241.7,73.6 242.4,70.7 243.8,67.6 C245.2,64.5 247.6,61.9 251,59.6 C254.4,57.3 259.1,56.2 264.9,56.2 C268.2,56.2 271.8,56.6 275.6,57.5"/><path d="M315.9,66.9 C315.9,68.2 315.7,70 315.4,72.2 L312.4,92.9 L300.6,92.9 L303.9,70.7 C303.9,70.3 304,70 304,69.8 C304,68.8 303.7,67.8 303.2,67 C302.7,66.2 301.9,65.8 300.9,65.8 C299.7,65.8 298.5,66.2 297.3,67.1 C296,68 294.5,69.3 292.6,71.1 L289.4,92.8 L277.6,92.8 L284.9,43.7 L296.6,43.7 L294,60.9 C296.2,59.3 298.1,58.1 299.8,57.3 C301.5,56.5 303.5,56.1 305.7,56.1 C308.4,56.1 310.5,56.7 312,57.9 C313.5,59.1 314.5,60.5 315.1,62.1 C315.6,63.9 315.9,65.5 315.9,66.9"/><path d="M355.3,72.7 C355.3,74.4 355.1,76.2 354.8,78 L332,78 C332,83 334.4,85.5 339.3,85.5 C341.7,85.5 343.9,85.2 345.8,84.6 C347.7,84 350,83.2 352.7,82.1 L350.9,91 C348.4,92 346.3,92.7 344.8,93.1 C343.3,93.5 341.4,93.6 339,93.6 C334.1,93.6 330.2,92.7 327.4,90.9 C324.6,89.1 322.7,86.9 321.7,84.4 C320.7,81.9 320.2,79.4 320.2,76.9 C320.2,73.2 321,69.8 322.7,66.6 C324.4,63.4 326.7,60.9 329.7,59.1 C332.7,57.2 336.1,56.3 339.8,56.3 C342.6,56.3 345.2,56.9 347.5,58.1 C349.8,59.3 351.7,61.1 353.1,63.6 C354.6,66 355.3,69.1 355.3,72.7 L355.3,72.7 Z M343.9,71.6 C343.9,71.4 343.9,71.3 343.9,71.1 C343.9,70.9 343.9,70.7 343.9,70.4 C343.9,66.3 342.5,64.3 339.7,64.3 C338,64.3 336.7,65 335.7,66.3 C334.7,67.6 333.8,69.4 333,71.6 L343.9,71.6 L343.9,71.6 Z"/><path d="M386.9,86.2 C386.9,87.5 386.6,88.7 385.9,89.9 C385.2,91 384.3,91.9 383.2,92.6 C382.1,93.3 380.8,93.6 379.5,93.6 C378.2,93.6 376.9,93.3 375.8,92.6 C374.7,91.9 373.8,91 373.1,89.9 C372.4,88.8 372.1,87.5 372.1,86.2 C372.1,84.9 372.4,83.6 373.1,82.5 C373.8,81.4 374.7,80.5 375.8,79.8 C376.9,79.1 378.2,78.8 379.5,78.8 C380.8,78.8 382,79.1 383.2,79.8 C384.3,80.5 385.2,81.4 385.9,82.5 C386.6,83.6 386.9,84.8 386.9,86.2 M391.9,48.5 C391.9,49.7 391.8,50.9 391.5,52.2 C391.2,53.5 390.8,55 390.3,56.9 L384.7,76.5 L377.2,76.5 L377.8,53.7 C378,50.6 378.4,48.5 378.8,47.3 C379.2,46.3 379.9,45.3 381,44.4 C382.1,43.5 383.6,43.1 385.6,43.1 C387.8,43.1 389.4,43.6 390.4,44.7 C391.4,45.9 391.9,47.1 391.9,48.5"/></g></g></svg>
